X:5
T:Les beaux jours
C:G. Chabenat
I:Airs nouveaux pour danses anciennes
Q:1/4=96
M:4/4 
K:F
A/G/F/E/ FD de/d/ cA |c/=B/A/G/ AB/c/ d/c/B/A/ G2 |A/G/F/E/ FD ee/d/ cA |c/=B/A/G/ AB/c/ d/c/B/e/ A2 :|
de fd ^c/d/e/=c/ A2 |d/A/d/e/ f/e/d/c/ cA/B/ G2 |de fd ^c/d/e/=c/ A2 |g/e/d/c/ =B/A/G/E/ G/A/_B/G/ A2 :|
